public/assets/svgs/addons/ember-typewriter.svg

<svg height="58" viewBox="0 0 59 58" width="59" xmlns="http://www.w3.org/2000/svg"><g fill="none" fill-rule="evenodd"><path d="m12 0h35v26h-35z" fill="#e6e6e6"/><g fill="#6c797a"><path d="m35 15h-18c-.552 0-1-.447-1-1s.448-1 1-1h18c.552 0 1 .447 1 1s-.448 1-1 1"/><path d="m23 19h-6c-.552 0-1-.447-1-1s.448-1 1-1h6c.552 0 1 .447 1 1s-.448 1-1 1"/><path d="m39 19h-6c-.552 0-1-.447-1-1s.448-1 1-1h6c.552 0 1 .447 1 1s-.448 1-1 1"/><path d="m28 19c-.26 0-.52-.11-.71-.29-.18-.19-.29-.45-.29-.71s.11-.52.29-.71c.38-.37 1.04-.37 1.42 0 .18.19.29.45.29.71s-.11.52-.29.71c-.19.18-.45.29-.71.29"/><path d="m33 23h-11c-.552 0-1-.447-1-1s.448-1 1-1h11c.552 0 1 .447 1 1s-.448 1-1 1"/><path d="m17 23c-.26 0-.52-.101-.71-.29-.18-.19-.29-.45-.29-.71s.11-.52.29-.71c.38-.37 1.06-.37 1.42.01.18.18.29.44.29.7s-.11.52-.29.71c-.19.18-.45.29-.71.29"/></g><path d="m6 51h48v4h-48z" fill="#47a083"/><path d="m8 55h6v3h-6z" fill="#38454f"/><path d="m46 55h6v3h-6z" fill="#38454f"/><path d="m52 31h-44v11c0 3.55-.775 6.729-2 8.927v.073h48v-.074c-1.225-2.197-2-5.376-2-8.926z" fill="#71c3aa"/><path d="m5 26v8h3v-3h44v3-8z" fill="#434c6d"/><path d="m57.678 34h-5.678v-10.678c0-.73.592-1.322 1.322-1.322h4.356c.73 0 1.322.592 1.322 1.322v9.356c0 .73-.592 1.322-1.322 1.322" fill="#38454f"/><path d="m52 25h7v2h-7z" fill="#546a79"/><path d="m52 29h7v2h-7z" fill="#546a79"/><g fill="#e8edee"><path d="m16 43h-4c-.552 0-1 .447-1 1s.448 1 1 1h1v2c0 .553.448 1 1 1s1-.447 1-1v-2h1c.552 0 1-.447 1-1s-.448-1-1-1"/><path d="m24 43h-4c-.552 0-1 .447-1 1s.448 1 1 1h1v2c0 .553.448 1 1 1s1-.447 1-1v-2h1c.552 0 1-.447 1-1s-.448-1-1-1"/><path d="m32 43h-4c-.552 0-1 .447-1 1s.448 1 1 1h1v2c0 .553.448 1 1 1s1-.447 1-1v-2h1c.552 0 1-.447 1-1s-.448-1-1-1"/><path d="m40 43h-4c-.552 0-1 .447-1 1s.448 1 1 1h1v2c0 .553.448 1 1 1s1-.447 1-1v-2h1c.552 0 1-.447 1-1s-.448-1-1-1"/><path d="m48 43h-4c-.552 0-1 .447-1 1s.448 1 1 1h1v2c0 .553.448 1 1 1s1-.447 1-1v-2h1c.552 0 1-.447 1-1s-.448-1-1-1"/><path d="m19 38h1c.552 0 1-.447 1-1s-.448-1-1-1h-4c-.552 0-1 .447-1 1s.448 1 1 1h1v2c0 .553.448 1 1 1s1-.447 1-1z"/><path d="m27 38h1c.552 0 1-.447 1-1s-.448-1-1-1h-4c-.552 0-1 .447-1 1s.448 1 1 1h1v2c0 .553.448 1 1 1s1-.447 1-1z"/><path d="m35 38h1c.552 0 1-.447 1-1s-.448-1-1-1h-4c-.552 0-1 .447-1 1s.448 1 1 1h1v2c0 .553.448 1 1 1s1-.447 1-1z"/><path d="m43 38h1c.552 0 1-.447 1-1s-.448-1-1-1h-4c-.552 0-1 .447-1 1s.448 1 1 1h1v2c0 .553.448 1 1 1s1-.447 1-1z"/></g><path d="m22 28c-.552 0-1 .447-1 1v4c0 .553.448 1 1 1s1-.447 1-1v-4c0-.553-.448-1-1-1" fill="#283238"/><path d="m26 28c-.552 0-1 .447-1 1v4c0 .553.448 1 1 1s1-.447 1-1v-4c0-.553-.448-1-1-1" fill="#283238"/><path d="m30 28c-.552 0-1 .447-1 1v4c0 .553.448 1 1 1s1-.447 1-1v-4c0-.553-.448-1-1-1" fill="#283238"/><path d="m34 28c-.552 0-1 .447-1 1v4c0 .553.448 1 1 1s1-.447 1-1v-4c0-.553-.448-1-1-1" fill="#283238"/><path d="m38 28c-.552 0-1 .447-1 1v4c0 .553.448 1 1 1s1-.447 1-1v-4c0-.553-.448-1-1-1" fill="#283238"/><path d="m5 29h-3v-7h3c.552 0 1-.447 1-1s-.448-1-1-1h-5v11h5z" fill="#cbd4d8"/></g></svg>

<?xml version="1.0" encoding="UTF-8" standalone="no"?>
<svg width="59px" height="58px" viewBox="0 0 59 58" version="1.1" xmlns="http://www.w3.org/2000/svg" xmlns:xlink="http://www.w3.org/1999/xlink">
    <!-- Generator: Sketch 40.1 (33804) - http://www.bohemiancoding.com/sketch -->
    <title>17 - Typewriter (technology, device, gadget, flat)</title>
    <desc>Created with Sketch.</desc>
    <defs></defs>
    <g id="Page-1" stroke="none" stroke-width="1" fill="none" fill-rule="evenodd">
        <g id="Icons" transform="translate(-480.000000, -1558.000000)">
            <g id="Typewriter" transform="translate(480.000000, 1558.000000)">
                <polygon id="Fill-20" fill="#E6E6E6" points="12 0 47 0 47 26 12 26"></polygon>
                <path d="M35,15 L17,15 C16.448,15 16,14.553 16,14 C16,13.447 16.448,13 17,13 L35,13 C35.552,13 36,13.447 36,14 C36,14.553 35.552,15 35,15" id="Fill-21" fill="#6C797A"></path>
                <path d="M23,19 L17,19 C16.448,19 16,18.553 16,18 C16,17.447 16.448,17 17,17 L23,17 C23.552,17 24,17.447 24,18 C24,18.553 23.552,19 23,19" id="Fill-22" fill="#6C797A"></path>
                <path d="M39,19 L33,19 C32.448,19 32,18.553 32,18 C32,17.447 32.448,17 33,17 L39,17 C39.552,17 40,17.447 40,18 C40,18.553 39.552,19 39,19" id="Fill-23" fill="#6C797A"></path>
                <path d="M28,19 C27.74,19 27.48,18.89 27.29,18.71 C27.11,18.52 27,18.26 27,18 C27,17.74 27.11,17.48 27.29,17.29 C27.67,16.92 28.33,16.92 28.71,17.29 C28.89,17.48 29,17.74 29,18 C29,18.26 28.89,18.52 28.71,18.71 C28.52,18.89 28.26,19 28,19" id="Fill-24" fill="#6C797A"></path>
                <path d="M33,23 L22,23 C21.448,23 21,22.553 21,22 C21,21.447 21.448,21 22,21 L33,21 C33.552,21 34,21.447 34,22 C34,22.553 33.552,23 33,23" id="Fill-25" fill="#6C797A"></path>
                <path d="M17,23 C16.74,23 16.48,22.899 16.29,22.71 C16.11,22.52 16,22.26 16,22 C16,21.74 16.11,21.48 16.29,21.29 C16.67,20.92 17.35,20.92 17.71,21.3 C17.89,21.48 18,21.74 18,22 C18,22.26 17.89,22.52 17.71,22.71 C17.52,22.89 17.26,23 17,23" id="Fill-26" fill="#6C797A"></path>
                <polygon id="Fill-804" fill="#47A083" points="6 51 54 51 54 55 6 55"></polygon>
                <polygon id="Fill-805" fill="#38454F" points="8 55 14 55 14 58 8 58"></polygon>
                <polygon id="Fill-806" fill="#38454F" points="46 55 52 55 52 58 46 58"></polygon>
                <path d="M52,31 L8,31 L8,42 C8,45.55 7.225,48.729 6,50.927 L6,51 L54,51 L54,50.926 C52.775,48.729 52,45.55 52,42 L52,31" id="Fill-807" fill="#71C3AA"></path>
                <polyline id="Fill-808" fill="#434C6D" points="5 26 5 34 8 34 8 31 52 31 52 34 52 26 5 26"></polyline>
                <path d="M57.678,34 L52,34 L52,23.322 C52,22.592 52.592,22 53.322,22 L57.678,22 C58.408,22 59,22.592 59,23.322 L59,32.678 C59,33.408 58.408,34 57.678,34" id="Fill-809" fill="#38454F"></path>
                <polygon id="Fill-810" fill="#546A79" points="52 25 59 25 59 27 52 27"></polygon>
                <polygon id="Fill-811" fill="#546A79" points="52 29 59 29 59 31 52 31"></polygon>
                <path d="M16,43 L12,43 C11.448,43 11,43.447 11,44 C11,44.553 11.448,45 12,45 L13,45 L13,47 C13,47.553 13.448,48 14,48 C14.552,48 15,47.553 15,47 L15,45 L16,45 C16.552,45 17,44.553 17,44 C17,43.447 16.552,43 16,43" id="Fill-812" fill="#E8EDEE"></path>
                <path d="M24,43 L20,43 C19.448,43 19,43.447 19,44 C19,44.553 19.448,45 20,45 L21,45 L21,47 C21,47.553 21.448,48 22,48 C22.552,48 23,47.553 23,47 L23,45 L24,45 C24.552,45 25,44.553 25,44 C25,43.447 24.552,43 24,43" id="Fill-813" fill="#E8EDEE"></path>
                <path d="M32,43 L28,43 C27.448,43 27,43.447 27,44 C27,44.553 27.448,45 28,45 L29,45 L29,47 C29,47.553 29.448,48 30,48 C30.552,48 31,47.553 31,47 L31,45 L32,45 C32.552,45 33,44.553 33,44 C33,43.447 32.552,43 32,43" id="Fill-814" fill="#E8EDEE"></path>
                <path d="M40,43 L36,43 C35.448,43 35,43.447 35,44 C35,44.553 35.448,45 36,45 L37,45 L37,47 C37,47.553 37.448,48 38,48 C38.552,48 39,47.553 39,47 L39,45 L40,45 C40.552,45 41,44.553 41,44 C41,43.447 40.552,43 40,43" id="Fill-815" fill="#E8EDEE"></path>
                <path d="M48,43 L44,43 C43.448,43 43,43.447 43,44 C43,44.553 43.448,45 44,45 L45,45 L45,47 C45,47.553 45.448,48 46,48 C46.552,48 47,47.553 47,47 L47,45 L48,45 C48.552,45 49,44.553 49,44 C49,43.447 48.552,43 48,43" id="Fill-816" fill="#E8EDEE"></path>
                <path d="M19,38 L20,38 C20.552,38 21,37.553 21,37 C21,36.447 20.552,36 20,36 L16,36 C15.448,36 15,36.447 15,37 C15,37.553 15.448,38 16,38 L17,38 L17,40 C17,40.553 17.448,41 18,41 C18.552,41 19,40.553 19,40 L19,38" id="Fill-817" fill="#E8EDEE"></path>
                <path d="M27,38 L28,38 C28.552,38 29,37.553 29,37 C29,36.447 28.552,36 28,36 L24,36 C23.448,36 23,36.447 23,37 C23,37.553 23.448,38 24,38 L25,38 L25,40 C25,40.553 25.448,41 26,41 C26.552,41 27,40.553 27,40 L27,38" id="Fill-818" fill="#E8EDEE"></path>
                <path d="M35,38 L36,38 C36.552,38 37,37.553 37,37 C37,36.447 36.552,36 36,36 L32,36 C31.448,36 31,36.447 31,37 C31,37.553 31.448,38 32,38 L33,38 L33,40 C33,40.553 33.448,41 34,41 C34.552,41 35,40.553 35,40 L35,38" id="Fill-819" fill="#E8EDEE"></path>
                <path d="M43,38 L44,38 C44.552,38 45,37.553 45,37 C45,36.447 44.552,36 44,36 L40,36 C39.448,36 39,36.447 39,37 C39,37.553 39.448,38 40,38 L41,38 L41,40 C41,40.553 41.448,41 42,41 C42.552,41 43,40.553 43,40 L43,38" id="Fill-820" fill="#E8EDEE"></path>
                <path d="M22,28 C21.448,28 21,28.447 21,29 L21,33 C21,33.553 21.448,34 22,34 C22.552,34 23,33.553 23,33 L23,29 C23,28.447 22.552,28 22,28" id="Fill-821" fill="#283238"></path>
                <path d="M26,28 C25.448,28 25,28.447 25,29 L25,33 C25,33.553 25.448,34 26,34 C26.552,34 27,33.553 27,33 L27,29 C27,28.447 26.552,28 26,28" id="Fill-822" fill="#283238"></path>
                <path d="M30,28 C29.448,28 29,28.447 29,29 L29,33 C29,33.553 29.448,34 30,34 C30.552,34 31,33.553 31,33 L31,29 C31,28.447 30.552,28 30,28" id="Fill-823" fill="#283238"></path>
                <path d="M34,28 C33.448,28 33,28.447 33,29 L33,33 C33,33.553 33.448,34 34,34 C34.552,34 35,33.553 35,33 L35,29 C35,28.447 34.552,28 34,28" id="Fill-824" fill="#283238"></path>
                <path d="M38,28 C37.448,28 37,28.447 37,29 L37,33 C37,33.553 37.448,34 38,34 C38.552,34 39,33.553 39,33 L39,29 C39,28.447 38.552,28 38,28" id="Fill-825" fill="#283238"></path>
                <path d="M5,29 L2,29 L2,22 L5,22 C5.552,22 6,21.553 6,21 C6,20.447 5.552,20 5,20 L0,20 L0,31 L5,31 L5,29" id="Fill-1945" fill="#CBD4D8"></path>
            </g>
        </g>
    </g>
</svg>
